svg/up_squared.svg

<svg xmlns="http://www.w3.org/2000/svg" viewBox="0 0 32 32" enable-background="new 0 0 32 32"><path d="M 5 5 L 5 6 L 5 26 L 5 27 L 6 27 L 26 27 L 27 27 L 27 26 L 27 6 L 27 5 L 26 5 L 6 5 L 5 5 z M 7 7 L 25 7 L 25 25 L 7 25 L 7 7 z M 16 11.09375 L 15.28125 11.78125 L 9.28125 17.78125 L 10.71875 19.21875 L 16 13.9375 L 21.28125 19.21875 L 22.71875 17.78125 L 16.71875 11.78125 L 16 11.09375 z" color="#000" overflow="visible" enable-background="accumulate"/></svg>

<svg xmlns="http://www.w3.org/2000/svg" viewBox="0 0 32 32"><path d="M5 5v22h22V5H5zm2 2h18v18H7V7zm9 4.094l-.72.687-6 6 1.44 1.44L16 13.937l5.28 5.28 1.44-1.437-6-6-.72-.686z"/></svg>
